!!!COM: Music21
!!!OTL: strathspey_Jimmy-McNeliss-Highland
!!!OMV: strathspey_Jimmy-McNeliss-Highland
**kern
*clefG2
*k[f#c#]
*b:
*M4/4
=1
16ddKL
8.bJ
8.ff#L
16bJk
16ddKL
8.ff#J
8.bL
16ddJk
=
12cc#L
12b
12aJ
8.eeL
16aJk
8.cc#L
16eeJk
8.aL
16cc#Jk
=
16ddKL
8.bJ
8.ff#L
16bJk
16ddKL
8.ff#J
8.bL
16ddJk
=
12cc#L
12b
12aJ
8.bL
16cc#Jk
8.ddL
16aJk
8.bL
16cc#Jk
!!linebreak:original
=||
*M4/4
16ddKL
8.bJ
8.ff#L
16bJk
16ddKL
8.ff#J
8.bL
16ddJk
=
12cc#L
12b
12aJ
8.eeL
16aJk
8.cc#L
16eeJk
8.aL
16cc#Jk
=
16ddKL
8.bJ
8.ff#L
16bJk
16ddKL
8.ff#J
8.bL
16ddJk
=
12cc#L
12b
12aJ
8.bL
16cc#Jk
8.ddL
16aJk
8.bL
16cc#Jk
!!linebreak:original
=||
4dd
8.ff#L
16ddJk
8.aaL
16ddJk
8.ff#L
16eeJk
=
8.ddL
16eeJk
8.ff#L
16ddJk
8.cc#L
16eeJk
8.bL
16cc#Jk
=
4dd
8.ff#L
16ddJk
8.aaL
16ddJk
8.ff#L
16ddJk
=
8.cc#L
16eeJk
8.bL
16cc#Jk
8.ddL
16aJk
8.bL
16cc#Jk
!!linebreak:original
=||
4dd
8.ff#L
16ddJk
8.aaL
16ddJk
8.ff#L
16eeJk
=
8.ddL
16eeJk
8.ff#L
16ddJk
8.cc#L
16eeJk
8.bL
16cc#Jk
=
4dd
8.ff#L
16ddJk
8.aaL
16ddJk
8.ff#L
16ddJk
=
8.cc#L
16eeJk
8.bL
16cc#Jk
8.ddL
16aJk
8.bL
16cc#Jk
=||
*-
